storage/app/icons/phosphoricons/thin/mouse-thin.svg

<svg xmlns="http://www.w3.org/2000/svg" fill="currentColor" viewBox="0 0 256 256"><path d="M144 20h-32a60.07 60.07 0 0 0-60 60v96a60.07 60.07 0 0 0 60 60h32a60.07 60.07 0 0 0 60-60V80a60.07 60.07 0 0 0-60-60m52 60v28h-64V28h12a52.06 52.06 0 0 1 52 52m-84-52h12v80H60V80a52.06 52.06 0 0 1 52-52m32 200h-32a52.06 52.06 0 0 1-52-52v-60h136v60a52.06 52.06 0 0 1-52 52"/></svg>

<svg xmlns="http://www.w3.org/2000/svg" viewBox="0 0 256 256" fill="currentColor"><path d="M144,20H112A60.07,60.07,0,0,0,52,80v96a60.07,60.07,0,0,0,60,60h32a60.07,60.07,0,0,0,60-60V80A60.07,60.07,0,0,0,144,20Zm52,60v28H132V28h12A52.06,52.06,0,0,1,196,80ZM112,28h12v80H60V80A52.06,52.06,0,0,1,112,28Zm32,200H112a52.06,52.06,0,0,1-52-52V116H196v60A52.06,52.06,0,0,1,144,228Z"/></svg>
